images/icon-tool.svg

<svg width="90" height="90" viewBox="0 0 90 90" fill="none" xmlns="http://www.w3.org/2000/svg">
<g id="icon-&#208;&#184;&#208;&#189;&#209;&#129;&#209;&#130;&#209;&#128;&#209;&#131;&#208;&#188;&#208;&#181;&#208;&#189;&#209;&#130;">
<g id="Group">
<g id="Group_2">
<path id="Vector" d="M73.6297 9.07239H44.6138C42.9487 9.07239 41.5729 10.3205 41.3675 11.9285H37.1426C35.589 11.9285 34.3251 13.1909 34.3251 14.7427V14.9751H29.891C26.0506 14.9751 22.8557 17.7797 22.25 21.4443H2.38727C1.69016 21.4443 1.125 22.0093 1.125 22.7066C1.125 23.4039 1.69016 23.9689 2.38727 23.9689H22.25C22.8554 27.636 26.0505 30.4428 29.891 30.4428H34.3251V30.6752C34.3251 32.227 35.589 33.4894 37.1426 33.4894H41.3675C41.5729 35.0974 42.9487 36.3455 44.6138 36.3455H46.5131C46.8229 38.4633 47.3106 41.9598 45.2747 45.1939C44.7476 46.0251 44.8862 46.6531 45.0956 47.0334C45.3043 47.4129 45.7577 47.8652 46.732 47.8652H52.0129L50.5311 62.8342H45.525C40.8357 62.8342 37.0206 66.6399 37.0206 71.3177V77.644C37.0206 78.8334 37.9892 79.8011 39.1798 79.8011H71.5545C72.7451 79.8011 73.7136 78.8334 73.7136 77.644V64.9913C73.7136 63.8019 72.7451 62.8342 71.5545 62.8342H68.0556C68.1018 59.4959 68.3308 56.3103 68.7401 53.3497C68.8356 52.6589 68.3532 52.0218 67.6627 51.9263C66.9714 51.8312 66.3349 52.3134 66.2395 53.0038C65.8145 56.0775 65.5777 59.3794 65.5313 62.8342H53.0679L54.6614 46.737C54.6618 46.7333 54.6621 46.7298 54.6624 46.7261L55.6901 36.3454H71.4118C69.6267 39.5715 68.2712 43.1917 67.2917 47.3461C67.1317 48.0246 67.5521 48.7043 68.2307 48.8644C68.3281 48.8874 68.4256 48.8984 68.5215 48.8984C69.0937 48.8984 69.6119 48.5066 69.7489 47.9254C70.8034 43.4529 72.3088 39.6515 74.3419 36.3268C81.548 35.9559 87.2963 29.9886 87.2963 22.7066C87.296 15.1887 81.1653 9.07239 73.6297 9.07239ZM29.891 27.9181C27.012 27.9181 24.6697 25.58 24.6697 22.7064C24.6697 19.8354 27.012 17.4995 29.891 17.4995H34.3251V27.9179H29.891V27.9181ZM36.8496 30.6749V29.1802V16.2372V14.7425C36.8496 14.5828 36.9811 14.4529 37.1426 14.4529H41.3383V30.9644H37.1426C36.9838 30.9645 36.8496 30.8319 36.8496 30.6749ZM71.1889 77.2764H39.545V71.3175C39.545 68.0317 42.2276 65.3586 45.5248 65.3586H47.3445V67.9427C47.3445 70.3311 49.9584 72.5799 51.9844 72.5799H71.1888V77.2764H71.1889ZM71.1889 65.3586V70.0552H51.9846C51.354 70.0552 49.8692 68.9503 49.8692 67.9425V65.3584H51.6727C51.6739 65.3584 51.6749 65.3586 51.6761 65.3586C51.6773 65.3586 51.6784 65.3584 51.6796 65.3584H71.1889V65.3586ZM52.2626 45.3403H48.0737C49.727 41.9041 49.3653 38.469 49.0637 36.3452H53.1529L52.2626 45.3403ZM73.6297 33.8206H68.4848V26.1243C68.4848 25.427 67.9197 24.8621 67.2225 24.8621C66.5254 24.8621 65.9603 25.427 65.9603 26.1243V33.8206H54.5424C54.5419 33.8206 54.5414 33.8206 54.5408 33.8206H44.6138C44.2066 33.8206 43.8628 33.4788 43.8628 33.0741V32.2268V13.1908V12.3435C43.8628 11.9389 44.2066 11.5969 44.6138 11.5969H65.9603V20.3073C65.9603 21.0046 66.5254 21.5695 67.2225 21.5695C67.9197 21.5695 68.4848 21.0046 68.4848 20.3073V11.5969H73.6297C79.7732 11.5969 84.7715 16.5805 84.7715 22.7064C84.7715 28.8348 79.7732 33.8206 73.6297 33.8206Z" fill="white"/>
<path id="Vector_2" d="M72.7087 19.6353C72.0116 19.6353 71.4465 20.2002 71.4465 20.8975V24.5154C71.4465 25.2126 72.0116 25.7776 72.7087 25.7776C73.4059 25.7776 73.971 25.2126 73.971 24.5154V20.8975C73.971 20.2002 73.4059 19.6353 72.7087 19.6353Z" fill="white"/>
<path id="Vector_3" d="M78.2856 19.6353C77.5885 19.6353 77.0234 20.2002 77.0234 20.8975V24.5154C77.0234 25.2126 77.5885 25.7776 78.2856 25.7776C78.9828 25.7776 79.5479 25.2126 79.5479 24.5154V20.8975C79.5479 20.2002 78.9828 19.6353 78.2856 19.6353Z" fill="white"/>
<path id="Vector_4" d="M57.0797 14.7227H51.3929C48.9922 14.7227 47.0391 16.6728 47.0391 19.0696C47.0391 21.4664 48.992 23.4163 51.3929 23.4163H57.0797C59.4778 23.4163 61.4286 21.4664 61.4286 19.0696C61.4286 16.6728 59.4776 14.7227 57.0797 14.7227ZM57.0797 20.8918H51.3929C50.3842 20.8918 49.5636 20.0743 49.5636 19.0696C49.5636 18.0646 50.3841 17.2472 51.3929 17.2472H57.0797C58.0858 17.2472 58.9041 18.0646 58.9041 19.0696C58.9041 20.0743 58.0856 20.8918 57.0797 20.8918Z" fill="white"/>
</g>
</g>
</g>
</svg>

<svg xmlns="http://www.w3.org/2000/svg" width="90" height="90" fill="none"><g fill="#fff"><path d="M73.63 9.072H44.614a3.277 3.277 0 0 0-3.246 2.857h-4.225a2.819 2.819 0 0 0-2.818 2.814v.232h-4.434a7.753 7.753 0 0 0-7.641 6.47H2.387a1.262 1.262 0 1 0 0 2.524H22.25c.605 3.667 3.8 6.474 7.641 6.474h4.434v.232a2.819 2.819 0 0 0 2.818 2.814h4.224a3.277 3.277 0 0 0 3.247 2.857h1.9c.309 2.117.797 5.614-1.24 8.848-.526.831-.388 1.46-.178 1.84.208.379.662.831 1.636.831h5.28l-1.48 14.97h-5.007c-4.69 0-8.504 3.805-8.504 8.483v6.326a2.16 2.16 0 0 0 2.159 2.157h32.375a2.16 2.16 0 0 0 2.159-2.157V64.991a2.16 2.16 0 0 0-2.16-2.157h-3.498c.046-3.338.275-6.524.684-9.484a1.262 1.262 0 1 0-2.5-.346c-.425 3.074-.662 6.375-.709 9.83H53.068l1.593-16.097.001-.01 1.028-10.382h15.722c-1.785 3.227-3.14 6.847-4.12 11.001a1.262 1.262 0 0 0 2.457.58c1.054-4.473 2.56-8.275 4.593-11.6 7.206-.37 12.954-6.337 12.954-13.62 0-7.517-6.13-13.634-13.666-13.634ZM29.89 27.918c-2.879 0-5.221-2.338-5.221-5.212 0-2.87 2.342-5.206 5.221-5.206h4.434v10.418h-4.434Zm6.959 2.757V14.743c0-.16.131-.29.293-.29h4.195v16.511h-4.195a.295.295 0 0 1-.293-.29Zm34.339 46.601H39.545v-5.959c0-3.285 2.683-5.958 5.98-5.958h1.82v2.584c0 2.388 2.613 4.637 4.64 4.637h19.204v4.696Zm0-11.917v4.696H51.985c-.631 0-2.116-1.105-2.116-2.113v-2.584h21.32ZM52.263 45.34h-4.19c1.654-3.436 1.292-6.871.99-8.995h4.09l-.89 8.995ZM73.63 33.82h-5.145v-7.696a1.262 1.262 0 1 0-2.525 0v7.697H44.614a.759.759 0 0 1-.751-.747V12.343c0-.404.344-.746.75-.746H65.96v8.71a1.262 1.262 0 1 0 2.525 0v-8.71h5.145c6.143 0 11.142 4.984 11.142 11.11 0 6.128-4.999 11.114-11.142 11.114Z"/><path d="M72.709 19.635c-.697 0-1.263.565-1.263 1.262v3.618a1.262 1.262 0 1 0 2.525 0v-3.617c0-.698-.565-1.263-1.262-1.263ZM78.286 19.635c-.698 0-1.263.565-1.263 1.262v3.618a1.262 1.262 0 1 0 2.525 0v-3.617c0-.698-.565-1.263-1.262-1.263ZM57.08 14.723h-5.687c-2.4 0-4.354 1.95-4.354 4.347a4.355 4.355 0 0 0 4.354 4.346h5.687a4.353 4.353 0 0 0 4.349-4.346 4.353 4.353 0 0 0-4.35-4.347Zm0 6.169h-5.687a1.828 1.828 0 0 1-1.83-1.822c0-1.005.821-1.823 1.83-1.823h5.687c1.006 0 1.824.818 1.824 1.823a1.825 1.825 0 0 1-1.824 1.822Z"/></g></svg>
